X: 35737
T: Säkkijärven Polkka
R: polka
M: 2/4
K: Aminor
|:a/z/z/e/ dc|cB B/E/^G/B/|e/e/e/d/ cB|A/B/c/B/ A/B/c/e/|
a/z/z/e/ dc|cB B/E/^G/B/|e/e/e/d/ cB|A/B/c/B/ Az:|
A/B/^c/d/ ea|a^g/f/ g/a/b|e/^f/^g/a/ bc'|ba a/b/c'|
A/B/^c/d/ ea|a^g/f/ g/a/b|e/^d/e/^f/ ^g/e/f/g/|a2 a2:|
A/^G/A/B/ c/B/c/^c/|d/^c/d/e/ f/e/d/f/|e/E/^G/B/ e/d/c/B/|c/d/c/B/ A/E/^F/^G/|
A/^G/A/B/ c/B/c/^c/|d/^c/d/e/ f/e/d/f/|e/E/^G/B/ e/d/c/B/|Aa Az:|
aa/f/ d/A/d/f/|aa/f/ d/A/d/f/|aa b>a|g/b/g/f/ e>f|
gg/f/ ee/f/|gg/f/ ee/f/|g^g a>=g|f/g/f/e/ d2|
aa/f/ dd/f/|aa/f/ dd/f/|ad' c'b|b/c'/b/a/ g>a|
b2 ag|f/g/f/e/ d/A/^c/e/|a/b/a/g/ fe|da d2||
|:e/z/z/B AG|GF F/B/^D/F/|B/B/B/A/ GF|E/F/G/F/ E/F/G/B/|
e/z/z/B AG|GF F/B/^D/F/|B/B/B/A/ GF|E/F/G/F/ Ez:|
|:E/F/^G/A/ Be|e^d/c/ d/e/f|B/^c/^d/e/ fg|fe e/f/g|
E/F/^G/A/ Be|e^d/c/ d/e/f|B/^A/B/^c/ ^d/B/c/d/|e2 e2:|
|:E/^D/E/F/ G/F/G/^G/|A/^G/A/B/ c/B/A/c/|B/B,/^D/F/ B/A/G/F/|G/A/G/F/ E/B/^C/^D/|
E/^D/E/F/ G/F/G/^G/|A/^G/A/B/ c/B/A/c/|B/B,/^D/F/ B/A/G/F/|Ee Ez:|
ee/c/ A/E/A/c/|ee/c/ A/E/A/c/|ee f>e|d/f/d/c/ B>c|
dd/c/ BB/c/|dd/c/ BB/c/|d^d e>=d|c/d/c/B/ A2|
ee/c/ AA/c/|ee/c/ AA/c/|ea gf|f/g/f/e/ de|
f2 ed|c/d/c/B/ A/E/^G/B/|e/f/e/d/ cB|Ae A2||

